src/assets/home/homesponsors/ipro-up.svg

<svg fill="none" height="96" viewBox="0 0 263 96" width="263" xmlns="http://www.w3.org/2000/svg"><g fill="#000"><path d="m202.214 8.83224h39.71c6.212 0 9.446 3.19996 9.446 9.27996v42.1334c0 6.144-2.956 9.1093-9.167 9.1093-22.554.0213-45.129 0-67.683 0-4.477 0-4.477 0-4.477 4.48v9.408c0 .5333.043 1.152-.514 1.4293-.621.2987-1.006-.2346-1.371-.5973-4.54-4.48-9.081-8.9813-13.622-13.4827-1.028-1.024-1.049-2.3253-1.049-3.6266 0-16.64-.043-33.28.021-49.92 0-5.1627 3.213-8.21336 8.375-8.21336 13.451-.02134 26.902 0 40.353 0zm4.155 30.07996c0 5.0774.107 10.1334-.042 15.2107-.086 2.752 1.092 3.5413 3.684 3.52 2.591-.0213 4.176-.6187 4.005-3.6267-.15-2.7946-.043-5.6106-.107-8.4053-.043-2.0267.878-2.9653 2.934-2.944 3.149.0213 6.297.0853 9.424-.1067 5.205-.32 9.446-3.456 10.645-7.6373 2.164-7.5307-2.913-13.7387-11.908-14.2293-5.184-.2774-10.388-.0427-15.593-.128-2.249-.0427-3.084.9386-3.063 3.1146.064 5.0774.021 10.1334 0 15.2107zm-6.575-3.7546c0-3.5627 0-7.1254 0-10.688 0-2.0694.043-3.904-2.935-3.904-2.934 0-2.955 1.8346-2.934 3.904 0 6.6986.129 13.3973-.064 20.0746-.171 6.016-3.192 8.704-9.039 8.576-5.569-.1066-7.882-2.6453-7.925-8.7466-.043-6.912-.085-13.824 0-20.736.043-2.816-1.52-3.136-3.748-3.0934-2.056.0427-3.962-.064-3.92 2.9014.086 7.3386-.15 14.6986.129 22.016.278 7.2106 3.877 11.2426 10.538 12.3946 3.106.5334 6.276.5547 9.381-.0426 6.961-1.3227 10.303-5.2694 10.474-12.3307.086-3.456 0-6.912 0-10.368z"/><path d="m32.341 55.7442c0-7.8934.0857-15.7867-.0428-23.6587-.0429-2.9227.9638-4.032 3.9624-3.9467 6.19.192 12.3586.064 18.5486.0854 3.5127 0 6.8968.704 10.131 2.0693 6.2971 2.688 9.2958 7.488 9.2529 14.2507-.0642 6.6986-3.3841 11.2-9.467 13.824-4.6051 1.984-9.4885 2.0266-14.3934 1.9626-2.7202-.0426-5.4403.1067-8.1391-.0426-2.4631-.128-3.2128.9386-3.17 3.264.1071 5.504-.0428 11.0293.0643 16.5333.0643 2.5813-.8139 3.7333-3.5555 3.6907-2.7202-.0214-3.2342-1.4294-3.2342-3.7121.0428-8.1066 0-16.2133 0-24.3199zm6.7255-11.6907v8.4267c0 1.344.4069 2.4106 1.9705 2.4106 5.6331 0 11.3091.5974 16.8993-.3626 6.1686-1.0667 9.5528-5.056 9.4243-10.5814-.1286-5.8666-3.2557-9.1306-9.7241-10.1973-5.2904-.8747-10.6023-.5973-15.9141-.6187-1.9919 0-2.6773.9814-2.6345 2.816.0428 2.7094 0 5.3974 0 8.1067z"/><path d="m124.206 43.1149c11.48.0853 19.727 8.8747 19.598 20.9067-.128 11.7973-8.653 20.7146-19.748 20.608-12.23-.1067-20.241-8.448-20.155-21.0134.086-12.2026 8.375-20.5866 20.305-20.5013zm13.087 20.8853h.064c-.064-1.408-.064-2.816-.214-4.2026-.75-6.4214-5.269-11.2854-11.052-11.8614-7.54-.768-13.023 2.56-15.186 9.3014-1.178 3.6693-1.285 7.4666-.471 11.2213 1.778 8.256 6.918 11.8827 15.593 11.1147 6.618-.576 10.987-5.888 11.244-13.632.022-.64 0-1.3014 0-1.9414z"/><path d="m87.0445 49.7281c2.6131-2.368 4.7336-4.3733 7.4537-5.6107 1.8206-.832 3.7269-1.0453 5.6978-.9813 1.949.064 2.634 1.1307 2.591 2.944-.043 1.7707-.878 2.5813-2.634 2.4533-3.0417-.2133-5.7833.6614-8.3321 2.2614-3.0415 1.92-4.7549 4.48-4.6479 8.2773.1714 6.8053.0429 13.6107.0429 20.416 0 2.0907.2356 4.2027-2.9558 4.224-3.1271.0213-3.1057-1.9413-3.1057-4.1173 0-10.5814 0-21.1627 0-31.744 0-2.176-.0643-4.2027 3.1057-4.0534 2.9986.128 2.8059 2.048 2.6345 4.096-.0428.4054.0643.8107.1499 1.8134z"/><path d="m21.5263 69.3762c0 3.776-.0642 7.552 0 11.328.0429 2.2827-1.0281 3.0294-3.1699 3.008-1.992-.0213-3.0201-.8106-2.9987-2.88.0215-7.6586.0215-15.3173 0-22.976 0-2.3466 1.3923-2.8586 3.3842-2.8586 2.1419 0 2.8058 1.088 2.7844 3.0506-.0642 3.776 0 7.552 0 11.328z"/><path d="m18.6125 43.0511c2.3346-.3413 3.5126.5547 3.4912 3.1574-.0214 2.496-1.1137 3.456-3.5126 3.52-2.5703.0426-3.3628-1.152-3.3199-3.584.0214-2.3254.8353-3.4987 3.3627-3.1147z"/><path d="m213.994 31.5736c0-6.5493.45-6.9546 7.068-6.2506 1.285.128 2.592.256 3.856.5546 2.891.6614 4.455 2.5814 4.69 5.4827.214 2.752-1.628 5.2267-4.498 5.9947-1.349.3626-2.763.5333-4.176.6613-6.661.5547-6.961.2347-6.961-6.4213z"/></g></svg>

<svg width="263" height="96" viewBox="0 0 263 96" fill="none" xmlns="http://www.w3.org/2000/svg">
<path d="M202.214 8.83224C215.451 8.83224 228.688 8.83224 241.924 8.83224C248.136 8.83224 251.37 12.0322 251.37 18.1122C251.37 32.1496 251.37 46.2082 251.37 60.2456C251.37 66.3896 248.414 69.3549 242.203 69.3549C219.649 69.3762 197.074 69.3549 174.52 69.3549C170.043 69.3549 170.043 69.3549 170.043 73.8349C170.043 76.9709 170.043 80.1069 170.043 83.2429C170.043 83.7762 170.086 84.3949 169.529 84.6722C168.908 84.9709 168.523 84.4376 168.158 84.0749C163.618 79.5949 159.077 75.0936 154.536 70.5922C153.508 69.5682 153.487 68.2669 153.487 66.9656C153.487 50.3256 153.444 33.6856 153.508 17.0456C153.508 11.8829 156.721 8.83224 161.883 8.83224C175.334 8.8109 188.785 8.83224 202.236 8.83224H202.214ZM206.369 38.9122C206.369 43.9896 206.476 49.0456 206.327 54.1229C206.241 56.8749 207.419 57.6642 210.011 57.6429C212.602 57.6216 214.187 57.0242 214.016 54.0162C213.866 51.2216 213.973 48.4056 213.909 45.6109C213.866 43.5842 214.787 42.6456 216.843 42.6669C219.992 42.6882 223.14 42.7522 226.267 42.5602C231.472 42.2402 235.713 39.1042 236.912 34.9229C239.076 27.3922 233.999 21.1842 225.004 20.6936C219.82 20.4162 214.616 20.6509 209.411 20.5656C207.162 20.5229 206.327 21.5042 206.348 23.6802C206.412 28.7576 206.369 33.8136 206.348 38.8909L206.369 38.9122ZM199.794 35.1576C199.794 31.5949 199.794 28.0322 199.794 24.4696C199.794 22.4002 199.837 20.5656 196.859 20.5656C193.925 20.5656 193.904 22.4002 193.925 24.4696C193.925 31.1682 194.054 37.8669 193.861 44.5442C193.69 50.5602 190.669 53.2482 184.822 53.1202C179.253 53.0136 176.94 50.4749 176.897 44.3736C176.854 37.4616 176.812 30.5496 176.897 23.6376C176.94 20.8216 175.377 20.5016 173.149 20.5442C171.093 20.5869 169.187 20.4802 169.229 23.4456C169.315 30.7842 169.079 38.1442 169.358 45.4616C169.636 52.6722 173.235 56.7042 179.896 57.8562C183.002 58.3896 186.172 58.4109 189.277 57.8136C196.238 56.4909 199.58 52.5442 199.751 45.4829C199.837 42.0269 199.751 38.5709 199.751 35.1149L199.794 35.1576Z" fill="black"/>
<path d="M32.341 55.7442C32.341 47.8508 32.4267 39.9575 32.2982 32.0855C32.2553 29.1628 33.262 28.0535 36.2606 28.1388C42.4506 28.3308 48.6192 28.2028 54.8092 28.2242C58.3219 28.2242 61.706 28.9282 64.9402 30.2935C71.2373 32.9815 74.236 37.7815 74.1931 44.5442C74.1289 51.2428 70.809 55.7442 64.7261 58.3682C60.121 60.3522 55.2376 60.3948 50.3327 60.3308C47.6125 60.2882 44.8924 60.4375 42.1936 60.2882C39.7305 60.1602 38.9808 61.2268 39.0236 63.5522C39.1307 69.0562 38.9808 74.5815 39.0879 80.0855C39.1522 82.6668 38.274 83.8188 35.5324 83.7762C32.8122 83.7548 32.2982 82.3468 32.2982 80.0641C32.341 71.9575 32.2982 63.8508 32.2982 55.7442H32.341ZM39.0665 44.0535C39.0665 46.8695 39.0665 49.6642 39.0665 52.4802C39.0665 53.8242 39.4734 54.8908 41.037 54.8908C46.6701 54.8908 52.3461 55.4882 57.9363 54.5282C64.1049 53.4615 67.4891 49.4722 67.3606 43.9468C67.232 38.0802 64.1049 34.8162 57.6365 33.7495C52.3461 32.8748 47.0342 33.1522 41.7224 33.1308C39.7305 33.1308 39.0451 34.1122 39.0879 35.9468C39.1307 38.6562 39.0879 41.3442 39.0879 44.0535H39.0665Z" fill="black"/>
<path d="M124.206 43.1149C135.686 43.2002 143.933 51.9896 143.804 64.0216C143.676 75.8189 135.151 84.7362 124.056 84.6296C111.826 84.5229 103.815 76.1816 103.901 63.6162C103.987 51.4136 112.276 43.0296 124.206 43.1149ZM137.293 64.0002C137.293 64.0002 137.336 64.0002 137.357 64.0002C137.293 62.5922 137.293 61.1842 137.143 59.7976C136.393 53.3762 131.874 48.5122 126.091 47.9362C118.551 47.1682 113.068 50.4962 110.905 57.2376C109.727 60.9069 109.62 64.7042 110.434 68.4589C112.212 76.7149 117.352 80.3416 126.027 79.5736C132.645 78.9976 137.014 73.6856 137.271 65.9416C137.293 65.3016 137.271 64.6402 137.271 64.0002H137.293Z" fill="black"/>
<path d="M87.0445 49.7281C89.6576 47.3601 91.7781 45.3548 94.4982 44.1174C96.3188 43.2854 98.2251 43.0721 100.196 43.1361C102.145 43.2001 102.83 44.2668 102.787 46.0801C102.744 47.8508 101.909 48.6614 100.153 48.5334C97.1113 48.3201 94.3697 49.1948 91.8209 50.7948C88.7794 52.7148 87.066 55.2748 87.173 59.0721C87.3444 65.8774 87.2159 72.6828 87.2159 79.4881C87.2159 81.5788 87.4515 83.6908 84.2601 83.7121C81.133 83.7334 81.1544 81.7708 81.1544 79.5948C81.1544 69.0134 81.1544 58.4321 81.1544 47.8508C81.1544 45.6748 81.0901 43.6481 84.2601 43.7974C87.2587 43.9254 87.066 45.8454 86.8946 47.8934C86.8518 48.2988 86.9589 48.7041 87.0445 49.7068V49.7281Z" fill="black"/>
<path d="M21.5263 69.3762C21.5263 73.1522 21.4621 76.9282 21.5263 80.7042C21.5692 82.9869 20.4982 83.7336 18.3564 83.7122C16.3644 83.6909 15.3363 82.9016 15.3577 80.8322C15.3792 73.1736 15.3792 65.5149 15.3577 57.8562C15.3577 55.5096 16.75 54.9976 18.7419 54.9976C20.8838 54.9976 21.5477 56.0856 21.5263 58.0482C21.4621 61.8242 21.5263 65.6002 21.5263 69.3762Z" fill="black"/>
<path d="M18.6125 43.0511C20.9471 42.7098 22.1251 43.6058 22.1037 46.2085C22.0823 48.7045 20.99 49.6645 18.5911 49.7285C16.0208 49.7711 15.2283 48.5765 15.2712 46.1445C15.2926 43.8191 16.1065 42.6458 18.6339 43.0298L18.6125 43.0511Z" fill="black"/>
<path d="M213.994 31.5736C213.994 25.0243 214.444 24.619 221.062 25.323C222.347 25.451 223.654 25.579 224.918 25.8776C227.809 26.539 229.373 28.459 229.608 31.3603C229.822 34.1123 227.98 36.587 225.11 37.355C223.761 37.7176 222.347 37.8883 220.934 38.0163C214.273 38.571 213.973 38.251 213.973 31.595L213.994 31.5736Z" fill="black"/>
</svg>
